theme/images/sources/rect.svg

<svg preserveAspectRatio="none" viewBox="19 413 240 167" xmlns="http://www.w3.org/2000/svg"><path d="M243 416.2c5.5.5 13.6 2.4 14.3 13 1.9 31.1.8 127.5.7 134.4-.1 6.8-4.7 10.3-9.1 10.7-59.8 4.7-200.3 5-213.4 4.7-13.1-.4-16.3-7.2-16.3-14 0 0 1-126.4 1.6-135.7.5-9.3 2.9-12.4 9.5-13.1 6.7-.6 55.5-2 104.9-2.5 49.3-.4 98.2 1.6 107.8 2.5z"/></svg>

<svg preserveAspectRatio="none" width="240px" height="167px" viewBox="19 413 240 167" version="1.1" xmlns="http://www.w3.org/2000/svg" xmlns:xlink="http://www.w3.org/1999/xlink">
    <path d="M243,416.2 C248.5,416.7 256.6,418.6 257.3,429.2 C259.2,460.3 258.1,556.7 258,563.6 C257.9,570.4 253.3,573.9 248.9,574.3 C189.1,579 48.6,579.3 35.5,579 C22.4,578.6 19.2,571.8 19.2,565 C19.2,565 20.2,438.6 20.8,429.3 C21.3,420 23.7,416.9 30.3,416.2 C37,415.6 85.8,414.2 135.2,413.7 C184.5,413.3 233.4,415.3 243,416.2 L243,416.2 Z" id="Shape"></path>
</svg>
